X:1
T:Title
%%score { ( 1 4 ) | ( 2 3 ) }
L:1/8
Q:1/4=100
M:6/8
K:Ab
V:1 treble nm="Grand Piano"
V:4 treble 
V:2 bass 
V:3 bass 
V:1
 [Ec]3 [Ec]3 | [Ec][DB][CA] GAB | [CA]3 [DF]3 | [CE]3 E3 | B3 B3 | BBB BAB | z3 c3[K:bass] | %7
w: Haldor~Lillenas *|||||||
 [Ec]6 | e3 e3 | ecB ABc | [Fd]3 [Fd]3 |[M:5/8] [DF]-[DF]- [DF]3 |[M:1/8] [DF] | %13
w: ||||||
[M:3/4] [=DB]3 [DB]3 | [=DB][Dc] [DB] [DA]2 F | B3 B3 | B6 | [Ec]3 [Ec]3 | %18
w: |||||
 [Ec][DB] [CA] [DG]2 [DB] | [CA]3 [DA]3 | A6 | B3 B3 | B=A B c2 B | A3 B3 | c6 | e3 e3 | ec BA Bc | %27
w: |||||||||
 [DFA]3 [DFA]2 [DF] | [CE]4 z2 | B3 B3 | B=A B c2 B | [CA]3 [DA]3 | [CA]6 |] %33
w: ||||||
V:2
 [A,,A,]3 [A,,A,]3 | [A,,A,][A,,A,][A,,A,] [E,B,D][E,A,C][E,G,D] | [A,,A,]3 [A,,A,]3 | A,6 | %4
 [E,G,E]3 [E,G,E]3 | [E,G,E][E,G,E][E,G,E] [E,G,D][E,A,C][E,G,E] | [A,E]3 .[E,A,E]3 | [A,,A,]6 | %8
 [A,CE]3 [A,CE]3 | [A,CE][A,E][A,D] [A,C][A,D][A,E] | [D,A,]3 [D,A,]3 | %11
[M:5/8] [D,A,]-[D,A,]- [D,A,]3 |[M:1/8] [D,A,] |[M:3/4] [B,,A,]3 [B,,A,]3 | %14
 [B,,F,][B,,F,] [B,,F,] [B,,B,]2 [A,B,=D] | [G,B,E]3 [F,A,=D]3 | D4 z2 | [A,,A,]3 [A,,A,]3 | %18
 [A,,A,][A,,A,] [A,,A,] [E,B,]2 [E,G,] | [A,,A,]3 [A,,F,]3 | [A,,E,]3 [C,A,]3 | [E,G,E]3 [E,G,E]3 | %22
 [E,G,E][E,_G,E] [E,=G,E] [E,A,E]2 [E,G,D] | [F,A,C]3 [E,G,E]3 | [A,E]6 | [A,CE]3 [A,CE]3 | %26
 [A,CE][A,E] [A,D][A,C] [A,D][A,E] | D,4 z A, | A,,3 C,3 | [E,G,D]3 [E,G,D]3 | %30
 [E,G,D][E,_G,C] [E,=G,D] [E,G,E]2 [E,G,D] | [A,,A,]3 [A,,F,]3 | [A,,E,]6 |] %33
V:3
 x6 | x6 | x6 | A,,3 C,3 | x6 | x6 | x6 | x6 | x6 | x6 | x6 |[M:5/8] x5 |[M:1/8] x |[M:3/4] x6 | %14
 x6 | x6 | [E,G,]6 | x6 | x6 | x6 | x6 | x6 | x6 | x6 | x6 | x6 | x6 | z2 z D,3 | x6 | x6 | x6 | %31
 x6 | x6 |] %33
V:4
 x6 | x6 | x6 | x6 | x6 | x6 | c3 z2[K:bass] C, | x6 | x6 | x6 | x6 |[M:5/8] x5 |[M:1/8] x | %13
[M:3/4] x6 | x6 | x6 | z2 z .E3 | x6 | x6 | x6 | C3 E3 | x6 | x6 | x6 | x6 | x6 | x6 | x6 | %28
 A,3- [A,E]3 | x6 | x6 | x6 | x6 |] %33

